X: 15347
T: Gladstone, The
R: reel
M: 4/4
K: Amajor
ed|cAdA efga|AAcA BGEd|cAdB efga|ecdB A2ed|
cAdA efga|AAcA BGEd|cAdB efga ecdB Aefg||
afba geag|fdgf eAce|dcBd cBAc|~B3c defg|
a~A3 eAce|aAgA fAec|defd ceaf|ecdB Aced||

